X:43
T:Coleman's March
T:Joe Coleman's March
T:Coleman Killed his Wife
R:march
O:American
Z:id:hn-march-43
M:2/4
L:1/8
K:G
e/d/c/ | BG BG/B/ | cc BB/c/ | dd/e/ d/B/G/B/ | A3 B/c/ |
dg f>f | e/f/e/d/ B/A/G | AA/B/ c/B/A/B/ | G2 z/ :|
|: B/c/d/ | g>g gg | f2 d2 | e/d/e/f/ g/f/e/f/ | d2 z/c/B/c/ |
dg f>f | e/f/e/d/ B/A/G | AA/B/ c/B/A/B/ | G2 z/ :|

